X:1
T:Madan
T:Hotham
%%score 1 2 3
L:1/8
M:4/4
K:Eb
V:1 treble nm="Soprano" snm="S."
V:2 treble-8 nm="Tenor" snm="T."
V:3 bass nm="Bass" snm="B."
V:1
 B2 E2 F3 c | B2 A2 G4 | F2 D2 E3 c | B2 A2 G4 | E2 e2 c2 B2 | A2 G2 F4 | c2 (B=A) B2 e2 | %7
 d2 c2 B4 | (eB) c2 (BE) A2 | (GB)(ec) (c2 B2) | (ed)(cB) (=AF)(Be) | d2 c2 B4 | B2 (cA) G3 G | %13
 (FG)(AF) D4 | F2 (FG/A/) (A2 G2) | (cd)(ec) (c2 B2) | (BG)(cA) (Be)(cA) | G2 F2 E4 |] %18
V:2
 E2 E2 E3 A | G2 F2 E4 | B2 B2 B3 A | G2 F2 E4 | G2 G2 A2 G2 | F2 E2 D4 | G2 E2 F2 B2 | B2 =A2 B4 | %8
 G2 A2 G2 F2 | E2 (cA) (A2 G2) | B2 (ed) c2 B2 | B2 =A2 B4 | G2 (AF) E3 B | c2 c2 F4 | %14
 A2 (AF) (F2 E2) | e2 (cA) (A2 G2) | e2 e2 e2 (ec) | B2 A2 G4 |] %18
V:3
 E,2 G,2 A,3 A, | B,2 B,,2 E,4 | B,,2 A,,2 G,,3 A,, | B,,2 B,,2 E,4 | E,2 E,2 A,2 E,2 | %5
 D,2 E,2 B,,4 | E,2 C,2 D,2 E,2 | F,2 F,2 B,,4 | E,2 E,2 E,2 B,,2 | E,2 A,2 E,2- E,2 | %10
 E,2 E,2 F,2 (G,E,) | F,2 F,2 B,,4 | E,2 E,2 E,3 E, | A,2 A,2 B,4 | B,2 B,,2 E,2- E,2 | %15
 A,2 A,,2 E,2- E,2 | E,2 A,2 G,2 A,2 | B,2 B,,2 E,4 |] %18

